public/icons/weather-icons/Tornado.svg

<svg width="216" height="200" viewBox="0 0 216 200" fill="none" xmlns="http://www.w3.org/2000/svg">
<g filter="url(#filter0_d_1506_809)">
<path d="M58.5623 113.615C58.5623 109.802 60.8656 106.22 64.9066 103.11C51.2057 97.2905 42.5741 88.8118 42.5741 79.3723C42.5741 61.8237 72.3969 47.5977 109.188 47.5977C145.978 47.5977 175.801 61.8237 175.801 79.3723C175.801 88.9049 167.005 97.4545 153.07 103.278C156.977 106.349 159.198 109.87 159.198 113.615C159.198 125.544 136.672 135.209 108.881 135.209C81.0903 135.209 58.5623 125.541 58.5623 113.615Z" fill="url(#paint0_linear_1506_809)"/>
<path d="M108.88 134.676C115.641 134.676 122.199 134.108 128.371 132.988C134.323 131.908 139.666 130.362 144.25 128.395C146.501 127.429 148.543 126.367 150.319 125.239C152.102 124.106 153.632 122.897 154.865 121.646C157.387 119.087 158.666 116.385 158.666 113.615C158.666 111.877 158.153 110.145 157.143 108.468C156.147 106.815 154.666 105.209 152.741 103.697L152.028 103.137L152.865 102.787C156.318 101.344 159.464 99.7254 162.215 97.977C164.977 96.2211 167.354 94.326 169.279 92.3446C171.227 90.3391 172.723 88.2328 173.726 86.0844C174.75 83.8923 175.269 81.634 175.269 79.3722C175.269 77.2889 174.828 75.2051 173.958 73.1785C173.106 71.1908 171.83 69.2323 170.168 67.3574C168.525 65.5053 166.49 63.7168 164.117 62.0418C161.759 60.3766 159.048 58.8098 156.061 57.3849C153.068 55.9572 149.773 54.6606 146.269 53.5311C142.726 52.3897 138.939 51.4091 135.011 50.6167C126.833 48.9668 118.145 48.1302 109.188 48.1302C100.23 48.1302 91.5418 48.9668 83.3639 50.6167C79.4363 51.4091 75.6489 52.3897 72.1067 53.5311C68.6018 54.6606 65.3071 55.9572 62.314 57.3849C59.3267 58.8098 56.6162 60.3766 54.2578 62.0418C51.8854 63.7168 49.8497 65.5053 48.2074 67.3574C46.5449 69.2323 45.2696 71.1908 44.4169 73.1785C43.5475 75.2051 43.1066 77.2889 43.1066 79.3722C43.1066 81.6122 43.6159 83.8494 44.6202 86.0217C45.6045 88.1507 47.0735 90.2394 48.9863 92.2297C50.876 94.1959 53.2106 96.0787 55.925 97.8257C58.6272 99.5648 61.719 101.178 65.1145 102.62L65.9535 102.977L65.231 103.532C63.2389 105.065 61.7053 106.695 60.6727 108.377C59.6257 110.083 59.0948 111.845 59.0948 113.615C59.0948 116.385 60.3736 119.087 62.8958 121.646C64.1286 122.897 65.658 124.106 67.4413 125.239C69.2174 126.367 71.2592 127.429 73.5101 128.395C78.0944 130.362 83.437 131.908 89.3894 132.988C95.5616 134.108 102.119 134.676 108.88 134.676ZM108.88 135.209C81.0905 135.209 58.5622 125.541 58.5622 113.615C58.5622 109.802 60.8653 106.219 64.9063 103.11C51.2054 97.2906 42.5741 88.8117 42.5741 79.3722C42.5741 61.8236 72.3979 47.5977 109.188 47.5977C145.977 47.5977 175.801 61.8236 175.801 79.3722C175.801 88.9038 167.004 97.4544 153.07 103.278C156.977 106.348 159.198 109.87 159.198 113.615C159.198 125.541 136.67 135.209 108.88 135.209Z" fill="white" fill-opacity="0.5"/>
</g>
<path fill-rule="evenodd" clip-rule="evenodd" d="M32.1301 79.7669C32.1301 74.1651 37.2794 67.4971 49.3615 61.9388C61.0132 56.5784 77.4613 53.1302 95.8979 53.1302C114.334 53.1302 130.783 56.5784 142.434 61.9388C154.516 67.4971 159.666 74.1651 159.666 79.7669C159.666 85.3688 154.516 92.0367 142.434 97.5951C130.783 102.956 114.334 106.404 95.8979 106.404C77.4613 106.404 61.0132 102.956 49.3615 97.5951C37.2794 92.0367 32.1301 85.3688 32.1301 79.7669ZM95.8979 43.1302C76.355 43.1302 58.4193 46.7642 45.182 52.854C32.375 58.7459 22.1301 67.8963 22.1301 79.7669C22.1301 90.5038 30.5115 99.0152 41.5892 104.903C40.8975 105.897 40.2439 106.96 39.6536 108.063C37.9372 111.272 36.5 115.303 36.5 119.5C36.5 121.575 37.061 124.594 39.5807 127.679C42.0173 130.662 45.9861 133.34 52.1053 135.472C53.5479 135.974 55.1301 136.453 56.866 136.902C56.3291 138.357 56 140.049 56 142C56 145.653 57.963 148.746 60.6285 151.012C63.2923 153.277 66.9605 155.018 71.3944 156.205C80.2794 158.584 93.1987 158.999 110.382 155.922C113.1 155.435 114.909 152.837 114.422 150.119C113.935 147.4 111.337 145.591 108.618 146.078C92.3013 149.001 80.9706 148.416 73.9805 146.545C70.4769 145.607 68.3015 144.41 67.1059 143.394C66.1424 142.575 66.0138 142.07 66 141.987C66.0033 140.189 66.6699 139.549 67.0412 139.245C67.1811 139.13 67.3231 139.035 67.4629 138.953C80.5502 140.796 99.3296 141.345 126.343 139.488C129.098 139.299 131.178 136.912 130.988 134.157C130.799 131.402 128.412 129.322 125.657 129.512C85.8189 132.251 65.5304 129.559 55.3947 126.028C50.3889 124.285 48.2327 122.463 47.3255 121.353C46.5015 120.344 46.5 119.675 46.5 119.5C46.5 117.487 47.2295 115.102 48.4715 112.78C49.2688 111.289 50.172 110.021 50.982 109.08C63.4498 113.712 79.0787 116.404 95.8979 116.404C115.441 116.404 133.376 112.77 146.614 106.68C159.421 100.788 169.666 91.6376 169.666 79.7669C169.666 67.8963 159.421 58.7459 146.614 52.854C133.376 46.7642 115.441 43.1302 95.8979 43.1302Z" fill="#B2B2B2"/>
<path fill-rule="evenodd" clip-rule="evenodd" d="M47.4559 141.597C48.0417 142.183 48.0417 143.133 47.4559 143.719L44.7825 146.392C44.1967 146.978 43.2469 146.978 42.6611 146.392C42.0754 145.806 42.0754 144.856 42.6611 144.271L45.3345 141.597C45.9203 141.012 46.8701 141.012 47.4559 141.597Z" fill="#FFD100"/>
<path fill-rule="evenodd" clip-rule="evenodd" d="M42.6611 141.597C43.2469 141.012 44.1967 141.012 44.7825 141.597L47.4559 144.271C48.0417 144.856 48.0417 145.806 47.4559 146.392C46.8701 146.978 45.9203 146.978 45.3345 146.392L42.6611 143.719C42.0754 143.133 42.0754 142.183 42.6611 141.597Z" fill="#FFD100"/>
<path fill-rule="evenodd" clip-rule="evenodd" d="M43.728 48.4009C44.3137 48.9867 44.3137 49.9365 43.728 50.5222L41.0546 53.1956C40.4688 53.7814 39.519 53.7814 38.9332 53.1956C38.3474 52.6099 38.3474 51.6601 38.9332 51.0743L41.6066 48.4009C42.1924 47.8151 43.1422 47.8151 43.728 48.4009Z" fill="#FFD100"/>
<path fill-rule="evenodd" clip-rule="evenodd" d="M38.9332 48.4009C39.519 47.8151 40.4688 47.8151 41.0546 48.4009L43.728 51.0743C44.3137 51.6601 44.3137 52.6099 43.728 53.1956C43.1422 53.7814 42.1924 53.7814 41.6066 53.1956L38.9332 50.5222C38.3474 49.9365 38.3474 48.9867 38.9332 48.4009Z" fill="#FFD100"/>
<path fill-rule="evenodd" clip-rule="evenodd" d="M157.694 130.414C158.28 131 158.28 131.949 157.694 132.535L155.02 135.208C154.435 135.794 153.485 135.794 152.899 135.208C152.313 134.623 152.313 133.673 152.899 133.087L155.573 130.414C156.158 129.828 157.108 129.828 157.694 130.414Z" fill="#FFD100"/>
<path fill-rule="evenodd" clip-rule="evenodd" d="M152.899 130.414C153.485 129.828 154.435 129.828 155.02 130.414L157.694 133.087C158.28 133.673 158.28 134.623 157.694 135.208C157.108 135.794 156.158 135.794 155.573 135.208L152.899 132.535C152.313 131.949 152.313 131 152.899 130.414Z" fill="#FFD100"/>
<path fill-rule="evenodd" clip-rule="evenodd" d="M172.073 97.3956C172.658 97.9814 172.658 98.9311 172.073 99.5169L169.399 102.19C168.813 102.776 167.864 102.776 167.278 102.19C166.692 101.605 166.692 100.655 167.278 100.069L169.951 97.3956C170.537 96.8098 171.487 96.8098 172.073 97.3956Z" fill="#FFD100"/>
<path fill-rule="evenodd" clip-rule="evenodd" d="M167.278 97.3956C167.864 96.8098 168.813 96.8098 169.399 97.3956L172.073 100.069C172.658 100.655 172.658 101.605 172.073 102.19C171.487 102.776 170.537 102.776 169.951 102.19L167.278 99.5169C166.692 98.9311 166.692 97.9814 167.278 97.3956Z" fill="#FFD100"/>
<defs>
<filter id="filter0_d_1506_809" x="22.5741" y="19.5977" width="193.227" height="147.612" filterUnits="userSpaceOnUse" color-interpolation-filters="sRGB">
<feFlood flood-opacity="0" result="BackgroundImageFix"/>
<feColorMatrix in="SourceAlpha" type="matrix" values="0 0 0 0 0 0 0 0 0 0 0 0 0 0 0 0 0 0 127 0" result="hardAlpha"/>
<feOffset dx="10" dy="2"/>
<feGaussianBlur stdDeviation="15"/>
<feColorMatrix type="matrix" values="0 0 0 0 0.501961 0 0 0 0 0.501961 0 0 0 0 0.501961 0 0 0 0.302 0"/>
<feBlend mode="normal" in2="BackgroundImageFix" result="effect1_dropShadow_1506_809"/>
<feBlend mode="normal" in="SourceGraphic" in2="effect1_dropShadow_1506_809" result="shape"/>
</filter>
<linearGradient id="paint0_linear_1506_809" x1="96.5311" y1="58.6367" x2="125.864" y2="138.946" gradientUnits="userSpaceOnUse">
<stop stop-color="white" stop-opacity="0.596"/>
<stop offset="1" stop-color="#F7F7F7" stop-opacity="0.204"/>
</linearGradient>
</defs>
</svg>

<svg xmlns="http://www.w3.org/2000/svg" width="216" height="200" fill="none"><g filter="url(#a)"><path fill="url(#b)" d="M58.562 113.615c0-3.813 2.304-7.395 6.345-10.505-13.701-5.82-22.333-14.298-22.333-23.738 0-17.548 29.823-31.774 66.614-31.774 36.79 0 66.613 14.226 66.613 31.774 0 9.533-8.796 18.082-22.731 23.906 3.907 3.071 6.128 6.592 6.128 10.337 0 11.929-22.526 21.594-50.317 21.594-27.79 0-50.319-9.668-50.319-21.594"/><path fill="#fff" fill-opacity=".5" d="M108.88 134.676c6.761 0 13.319-.568 19.491-1.688 5.952-1.08 11.295-2.626 15.879-4.593 2.251-.966 4.293-2.028 6.069-3.156 1.783-1.133 3.313-2.342 4.546-3.593 2.522-2.559 3.801-5.261 3.801-8.031 0-1.738-.513-3.47-1.523-5.147-.996-1.653-2.477-3.259-4.402-4.771l-.713-.56.837-.35c3.453-1.443 6.599-3.062 9.35-4.81 2.762-1.756 5.139-3.651 7.064-5.632 1.948-2.006 3.444-4.112 4.447-6.26 1.024-2.193 1.543-4.451 1.543-6.713 0-2.083-.441-4.167-1.311-6.193-.852-1.988-2.128-3.947-3.79-5.822-1.643-1.852-3.678-3.64-6.051-5.315-2.358-1.665-5.069-3.232-8.056-4.657-2.993-1.428-6.288-2.724-9.792-3.854a104 104 0 0 0-11.258-2.914c-8.178-1.65-16.866-2.487-25.823-2.487s-17.646.837-25.824 2.487a104 104 0 0 0-11.257 2.914c-3.505 1.13-6.8 2.426-9.793 3.854-2.987 1.425-5.698 2.992-8.056 4.657-2.373 1.675-4.408 3.463-6.05 5.315-1.663 1.875-2.938 3.834-3.791 5.822-.87 2.026-1.31 4.11-1.31 6.193 0 2.24.509 4.477 1.513 6.65.985 2.129 2.454 4.217 4.366 6.208 1.89 1.966 4.225 3.849 6.939 5.596 2.702 1.739 5.794 3.352 9.19 4.794l.839.357-.723.555c-1.992 1.533-3.526 3.163-4.558 4.845-1.047 1.706-1.578 3.468-1.578 5.238 0 2.77 1.279 5.472 3.8 8.031 1.234 1.251 2.763 2.46 4.546 3.593 1.776 1.128 3.818 2.19 6.07 3.156 4.583 1.967 9.926 3.513 15.878 4.593 6.173 1.12 12.73 1.688 19.491 1.688m0 .533c-27.79 0-50.318-9.668-50.318-21.594 0-3.813 2.303-7.396 6.344-10.505-13.7-5.82-22.332-14.298-22.332-23.738 0-17.548 29.824-31.774 66.614-31.774 36.789 0 66.613 14.226 66.613 31.774 0 9.532-8.797 18.082-22.731 23.906 3.907 3.07 6.128 6.592 6.128 10.337 0 11.926-22.528 21.594-50.318 21.594"/></g><path fill="#B2B2B2" fill-rule="evenodd" d="M32.13 79.767c0-5.602 5.15-12.27 17.231-17.828 11.652-5.36 28.1-8.809 46.537-8.809s34.885 3.448 46.536 8.809c12.082 5.558 17.232 12.226 17.232 17.828s-5.15 12.27-17.232 17.828c-11.651 5.361-28.1 8.809-46.536 8.809-18.437 0-34.885-3.448-46.536-8.809C37.279 92.037 32.13 85.37 32.13 79.767M95.898 43.13c-19.543 0-37.479 3.634-50.716 9.724C32.375 58.746 22.13 67.896 22.13 79.767c0 10.737 8.382 19.248 19.46 25.136a32 32 0 0 0-1.936 3.16c-1.717 3.209-3.154 7.24-3.154 11.437 0 2.075.561 5.094 3.08 8.179 2.437 2.983 6.406 5.661 12.525 7.793 1.443.502 3.025.981 4.761 1.43-.537 1.455-.866 3.147-.866 5.098 0 3.653 1.963 6.746 4.629 9.012 2.663 2.265 6.331 4.006 10.765 5.193 8.885 2.379 21.805 2.794 38.988-.283a5 5 0 1 0-1.764-9.844c-16.317 2.923-27.647 2.338-34.637.467-3.504-.938-5.68-2.135-6.875-3.151-.964-.819-1.092-1.324-1.106-1.407.003-1.798.67-2.438 1.041-2.742q.211-.17.422-.292c13.087 1.843 31.867 2.392 58.88.535a5 5 0 0 0 4.645-5.331 5 5 0 0 0-5.331-4.645c-39.838 2.739-60.127.047-70.262-3.484-5.006-1.743-7.162-3.565-8.07-4.675-.824-1.009-.825-1.678-.825-1.853 0-2.013.73-4.398 1.971-6.72a20.8 20.8 0 0 1 2.511-3.7c12.468 4.632 28.097 7.324 44.916 7.324 19.543 0 37.478-3.634 50.716-9.724 12.807-5.892 23.052-15.042 23.052-26.913 0-11.87-10.245-21.021-23.052-26.913-13.238-6.09-31.173-9.724-50.716-9.724" clip-rule="evenodd"/><path fill="#FFD100" fill-rule="evenodd" d="M47.456 141.597a1.5 1.5 0 0 1 0 2.122l-2.674 2.673a1.5 1.5 0 1 1-2.12-2.121l2.672-2.674a1.5 1.5 0 0 1 2.122 0" clip-rule="evenodd"/><path fill="#FFD100" fill-rule="evenodd" d="M42.661 141.597a1.5 1.5 0 0 1 2.121 0l2.674 2.674a1.5 1.5 0 1 1-2.122 2.121l-2.673-2.673a1.5 1.5 0 0 1 0-2.122M43.728 48.4a1.5 1.5 0 0 1 0 2.122l-2.673 2.674a1.5 1.5 0 0 1-2.122-2.122l2.674-2.673a1.5 1.5 0 0 1 2.121 0" clip-rule="evenodd"/><path fill="#FFD100" fill-rule="evenodd" d="M38.933 48.4a1.5 1.5 0 0 1 2.122 0l2.673 2.674a1.5 1.5 0 0 1-2.121 2.122l-2.674-2.674a1.5 1.5 0 0 1 0-2.121M157.694 130.414a1.5 1.5 0 0 1 0 2.121l-2.674 2.673a1.5 1.5 0 1 1-2.121-2.121l2.674-2.673a1.5 1.5 0 0 1 2.121 0" clip-rule="evenodd"/><path fill="#FFD100" fill-rule="evenodd" d="M152.899 130.414a1.5 1.5 0 0 1 2.121 0l2.674 2.673a1.5 1.5 0 1 1-2.121 2.121l-2.674-2.673a1.5 1.5 0 0 1 0-2.121M172.073 97.396a1.5 1.5 0 0 1 0 2.12l-2.674 2.674a1.5 1.5 0 1 1-2.121-2.121l2.673-2.673a1.5 1.5 0 0 1 2.122 0" clip-rule="evenodd"/><path fill="#FFD100" fill-rule="evenodd" d="M167.278 97.396a1.5 1.5 0 0 1 2.121 0l2.674 2.673a1.501 1.501 0 0 1-2.122 2.121l-2.673-2.673a1.5 1.5 0 0 1 0-2.121" clip-rule="evenodd"/><defs><linearGradient id="b" x1="96.531" x2="125.864" y1="58.637" y2="138.946" gradientUnits="userSpaceOnUse"><stop stop-color="#fff" stop-opacity=".596"/><stop offset="1" stop-color="#F7F7F7" stop-opacity=".204"/></linearGradient><filter id="a" width="193.227" height="147.612" x="22.574" y="19.598" color-interpolation-filters="sRGB" filterUnits="userSpaceOnUse"><feFlood flood-opacity="0" result="BackgroundImageFix"/><feColorMatrix in="SourceAlpha" result="hardAlpha" values="0 0 0 0 0 0 0 0 0 0 0 0 0 0 0 0 0 0 127 0"/><feOffset dx="10" dy="2"/><feGaussianBlur stdDeviation="15"/><feColorMatrix values="0 0 0 0 0.501961 0 0 0 0 0.501961 0 0 0 0 0.501961 0 0 0 0.302 0"/><feBlend in2="BackgroundImageFix" result="effect1_dropShadow_1506_809"/><feBlend in="SourceGraphic" in2="effect1_dropShadow_1506_809" result="shape"/></filter></defs></svg>
